!!!COM: Joplin, Scott
!!!CDT: 1868/11/24/-1917/04/01/
!!!OTL: The Rosebud March
!!!ODE: Tom Turpin
!!!ODT: 1905///
!!!PDT: 1905///
!!!PPR: John Stark & Son
**kern	**kern	**dynam
*staff2	*staff1	*staff1/2
*Ipiano	*Ipiano	*Ipiano
*>[I,A,A1,A,A2,B,B1,B,B2,C1,C2,D,E,E1,E2]	*>[I,A,A1,A,A2,B,B1,B,B2,C1,C2,D,E,E1,E2]	*>[I,A,A1,A,A2,B,B1,B,B2,C1,C2,D,E,E1,E2]
*>norep[I,A,A2,B,B2,C,C2,D,E,E2]	*>norep[I,A,A2,B,B2,C,C2,D,E,E2]	*>norep[I,A,A2,B,B2,C,C2,D,E,E2]
*>I	*>I	*>I
*clefF4	*clefG2	*clefG2
*k[f#]	*k[f#]	*k[f#]
*M6/8	*M6/8	*M6/8
*MM160	*MM160	*MM160
=1-	=1-	=1
(8dL	(8ddL	.
8d-	8dd-	.
8cJ	8ccJ	.
8BL	8bL	.
8B-	8b-	.
8AJ)	8aJ)	.
=2	=2	=2
(8A-L	(8a-L	.
8G	8g	.
8F#J	8f#J	.
8FnL	8fnL	.
8E	8e	.
8E-J)	8e-J)	.
=3	=3	=3
(8DL	(8dL	.
8D#	8d#	.
8EJ	8eJ	.
8F#L	8f#L	.
8E	8e	.
8E-J)	8e-J)	.
=4	=4	=4
8D	8d	.
8r	8r	.
8r	8r	.
8DD 8D	8d 8f# 8a 8dd	.
8r	8r	.
8r	8d	.
=5!|:	=5!|:	=5!|:
*>A	*>A	*>A
8AAL	8f#L	mf
8r	8e	.
8D 8F# 8cJ	8dJ	.
8DDL	8aL	.
8r	8b	.
8D 8F# 8cJ	8ccJ	.
=6	=6	=6
8GGL	8bL	.
8r	8r	.
8D 8G 8BJ	8g 8b 8eeJ	.
8DDL	4g 4b 4ee	.
8r	.	.
8D 8G 8BJ	8ee	.
=7	=7	=7
8FF#L	8ddL	.
8r	8ee	.
8D 8A 8cJ	8ccJ	.
8DDL	8bL	.
8r	8cc	.
8D 8F# 8cJ	8aJ	.
=8	=8	=8
8GGL	8gL	.
8r	8r	.
8D 8G 8BJ	8g 8b 8eeJ	.
4D 4G 4B	4g 4b 4ee	.
8D 8G 8B	8g	.
=9	=9	=9
8AAL	8f#L	.
8r	8e	.
8D 8F# 8cJ	8dJ	.
8DDL	8aL	.
8r	8b	.
8D 8F# 8cJ	8ccJ	.
=10	=10	=10
8GGL	8bL	.
8r	8r	.
8D 8G 8BJ	8g 8b 8eeJ	.
4D 4G 4B	4g 4b 4ee	.
8GG# 8G#	8b 8dd 8ee#	.
=11	=11	=11
*	*^	*
4AA 4A	(8ff#L	4.a 4.dd	.
.	8ee	.	.
8F# 8A 8d	8ddJ)	.	.
4AA	(8cc#L	4g	.
.	8dd	.	.
8A 8c#	8eeJ)	8g	.
*	*v	*v	*
=12	=12	=12
4D 4A 4d	[4.f# [4.dd	.
8AA 8A	.	.
8DD 8D	4f#] 4dd]	.
8r	.	.
8r	8d	.
=13	=13	=13
8AAL	8f#L	.
8r	8e	.
8D 8F# 8cJ	8dJ	.
8DDL	8aL	.
8r	8b	.
8D 8F# 8cJ	8ccJ	.
=14	=14	=14
8GGL	8bL	.
8r	8r	.
8D 8G 8BJ	8g 8b 8eeJ	.
8DDL	4g 4b 4ee	.
8r	.	.
8D 8G 8BJ	8ee	.
=15	=15	=15
8FF#L	8ddL	.
8r	8ee	.
8D 8A 8cJ	8ccJ	.
8DDL	8bL	.
8r	8cc	.
8D 8F# 8cJ	8aJ	.
=16	=16	=16
8GGL	8gL	.
8r	8r	.
8D 8G 8BJ	8g 8b 8eeJ	.
4D 4G 4B	4g 4b 4ee	.
8r	(16ff#LL	.
.	16ggJJ)	.
=17	=17	=17
4C	4.cc 4.ee 4.aa	.
8E 8A 8c	.	.
4E 4A 4c	(8ggL	.
.	8ee	.
8E 8A 8c	8ccJ)	.
=18	=18	=18
8DL	8bL	.
8r	8r	.
8G 8BJ	8eeJ	.
8BBL	8ddL	.
8r	8b	.
8D 8G 8BJ	8gJ	.
=19	=19	=19
8AAL	8f#L	p
8r	8dd	.
8D 8F# 8cJ	8aJ	.
8DDL	8ccL	.
8r	8b	.
8D 8F# 8cJ	8aJ	.
=20	=20	=20
*>A1	*>A1	*>A1
4G 4B	4g	.
8r	8d	.
4.r	8dL	.
.	8d	.
.	8dJ	.
=21:|!	=21:|!	=21:|!
*>A2	*>A2	*>A2
4G 4B	4g	.
8r	8d 8dd	.
4.r	8d 8ddL	.
.	8d 8dd	.
.	8d 8ddJ	.
=22!|:	=22!|:	=22!|:
*>B	*>B	*>B
4C	4.e 4.cc 4.ee	f
8E 8A 8c	.	.
4E 4A 4c	4d# 4dd#	.
8E 8A 8c	8e 8cc 8ee	.
=23	=23	=23
4AA	4.cc 4.ff# 4.ccc	.
8D 8F# 8c	.	.
4DD	4b 4bb	.
8D 8F# 8c	8a 8ff# 8aa	.
=24	=24	=24
4GG	4b 4gg 4bb	.
8D 8G 8B	8dd 8bb 8ddd	.
4D 4G 4B	[4.dd [4.bb [4.ddd	.
8D 8G 8B	.	.
=25	=25	=25
4GG	4.dd] 4.bb] 4.ddd]	.
8D 8G 8B	.	.
4.BB	4d 4dd	.
.	8d# 8dd#	.
=26	=26	=26
4C	4.e 4.cc 4.ee	.
8E 8A 8c	.	.
4E 4A 4c	4d# 4dd#	.
8E 8A 8c	8e 8cc 8ee	.
=27	=27	=27
4AA	4.cc 4.ff# 4.ccc	.
8D 8F# 8c	.	.
4DD	4dd 4ff# 4ddd	.
8D 8F# 8A	8cc 8ff# 8ccc	.
=28	=28	=28
(8GGL	[2.b [2.gg [2.bb	.
8D	.	.
8GJ	.	.
8BL	.	.
8G	.	.
8DJ)	.	.
=29	=29	=29
4.GG	4.b] 4.gg] 4.bb]	.
4GG 4G	4d 4dd	.
8FFn 8Fn	8d# 8dd#	.
=30	=30	=30
4EE 4E	4.e 4.g# 4.ee	.
8E 8B 8d	.	.
4GG#	4fn 4ffn	.
8E 8B 8d	8e 8g# 8ee	.
=31	=31	=31
4BB	4.g# 4.ee 4.gg#	.
8E 8B 8d	.	.
4GG# 4G#	4.b 4.ee 4.bb	.
8E 8B 8d	.	.
=32	=32	=32
4AA 4A	4cc 4ee 4ccc	.
8BB 8B	8b 8ee 8bb	.
4.C 4.c	[4.a [4.ee [4.aa	.
=33	=33	=33
4C#	4a] 4ee] 4aa]	.
8E 8G 8A#	8gg 8ggg	.
4E 4G 4A#	4ff# 4fff#	.
8E 8G 8A#	8ee 8eee	.
=34	=34	=34
4D	4dd 4ddd	.
8G 8B	8cc# 8ccc#	.
4BB	4dd 4ddd	.
8D 8G 8B	8ee 8eee	.
=35	=35	=35
4AA	4.cc# 4.gg 4.bb	.
8E 8G 8A 8c#	.	.
4DD	4.ccn 4.ff# 4.aa	.
8D 8F# 8A 8cn	.	.
=36	=36	=36
*>B1	*>B1	*>B1
4GG	[2.b [2.gg	.
8D	.	.
8EL	.	.
8D	.	.
8BBJ	.	.
=37	=37	=37
4GG	4b] 4gg]	.
8r	8d 8dd	.
4.r	8d 8ddL	.
.	8d 8dd	.
.	8d 8ddJ	.
=38:|!	=38:|!	=38:|!
*>B2	*>B2	*>B2
4GG	[2.b [2.gg	.
8D	.	.
8EL	.	.
8D	.	.
8BBJ	.	.
=39	=39	=39
4GG	4b] 4gg]	.
8Fn	8r	.
4E	4.r	.
8D	.	.
=40	=40	=40
*>C	*>C	*>C
*k[]	*k[]	*k[]
4C	4.g 4.ee	p
8E 8G 8c	.	.
4C	4.e 4.g	.
8E 8G 8c	.	.
=41	=41	=41
*	*^	*
4C	4.d# 4.f#	4.r	.
8F# 8A 8c	.	.	.
4C	(4b	4.d#	.
8F# 8A 8c	8a)	.	.
*	*v	*v	*
=42	=42	=42
4C	4.e 4.g	.
8E 8G 8c	.	.
4GG	[4.e [4.cc	.
8E 8G 8c	.	.
=43	=43	=43
4C	4.e] 4.cc]	.
8E 8G 8c	.	.
4GG	4.b- 4.cc	.
8E 8G 8c	.	.
=44	=44	=44
4FF	4.a 4.cc	.
8F 8A 8c	.	.
4C	4.f 4.a	.
8F 8A 8c	.	.
=45	=45	=45
4AA	4.a 4.ff	.
8F 8A 8c	.	.
4FF	4.f 4.a	.
8F 8A 8c	.	.
=46	=46	=46
*	*^	*
4C	[2.g	4.e	.
8E 8G 8c	.	.	.
4C#	.	4.e	.
8E 8G 8A#	.	.	.
=47	=47	=47	=47
4D 4G 4B	4g]	4f	.
8r	8r	8r	.
8GG 8G	4.r	8g 8gg	.
8r	.	8r	.
8r	.	8r	.
*	*v	*v	*
=48	=48	=48
4C	4.g 4.ee	.
8E 8G 8c	.	.
4C	4.e 4.g	.
8E 8G 8c	.	.
=49	=49	=49
*	*^	*
4C	4.d# 4.f#	4.r	.
8F# 8A 8c	.	.	.
4C	(4b	4.d#	.
8F# 8A 8c	8a)	.	.
*	*v	*v	*
=50	=50	=50
4C	4.e 4.g	.
8E 8G 8c	.	.
4GG	[4.e [4.cc	.
8E 8G 8c	.	.
=51	=51	=51
4E	4.e] 4.cc]	.
8G 8c	.	.
4E-	4.cc	.
8G 8c	.	.
=52	=52	=52
4D	4.b	.
8G 8B	.	.
4BB	4.g	.
8D 8G 8B	.	.
=53	=53	=53
4D	4.a	.
8F# 8A 8c	.	.
4D	4.d	.
8F# 8A 8c	.	.
=54	=54	=54
8GGL	[2.B [2.g	.
8BB	.	.
8DJ	.	.
8GL	.	.
8D	.	.
8BBJ	.	.
=55	=55	=55
4GG	4B] 4g]	.
8r	8r	.
4.GG 4.G	4.g 4.gg	.
=56	=56	=56
4C	4.g 4.ee	.
8E 8G 8c	.	.
4C	4.e 4.g	.
8E 8G 8c	.	.
=57	=57	=57
*	*^	*
4C	4.d# 4.f#	4.r	.
8F# 8A 8c	.	.	.
4C	(4b	4.d#	.
8F# 8A 8c	8a)	.	.
*	*v	*v	*
=58	=58	=58
4C	4.e 4.g	.
8E 8G 8c	.	.
4GG	[4.e [4.cc	.
8E 8G 8c	.	.
=59	=59	=59
4C	4.e] 4.cc]	.
8E 8G 8c	.	.
4E 4G 4c	4.e 4.g	.
8E 8G 8c	.	.
=60	=60	=60
4FF	4.f 4.a	.
8F 8A 8c	.	.
4F 4A 4c	4.a 4.cc	.
8F 8A 8c	.	.
=61	=61	=61
4.FF 4.F	4.a 4.b 4.dd	.
4.FF 4.F	4.a 4.b 4.dd#	.
=62	=62	=62
8EE 8EL	[2.g# [2.b [2.ee	.
8GG#	.	.
8BBJ	.	.
8EL	.	.
8BB	.	.
8GG#J	.	.
=63	=63	=63
4EE	4.g#] 4.b] 4.ee]	.
8r	.	.
4.r	4.ee	.
=64	=64	=64
4E	4.a 4.cc# 4.aa	.
8G 8A 8c#	.	.
4AA	4.a 4.cc# 4.gg	.
8G 8A 8c#	.	.
=65	=65	=65
4C#	4.a 4.cc# 4.ff	<
8G 8A 8c#	.	.
4AA	4.g 4.cc# 4.ee	.
8G 8A 8c#	.	.
=66	=66	=66
4D	4.f 4.a 4.dd	<
8F 8A 8d	.	.
4AA 4A	4.a 4.dd 4.ff	.
8F 8A 8d	.	.
=67	=67	=67
2.AA- 2.A-	2.cc 2.dd# 2.ff# 2.ccc	f
=68	=68	=68
4GG 4G	4.cc 4.ee 4.gg	mf
8E 8G 8c	.	.
4E 4G 4c	4.g 4.cc 4.ee	.
8E 8G 8c	.	.
=69	=69	=69
4GG	[4.f [4.b [4.dd	.
8F 8G 8B	.	.
4D	4f] 4b] 4dd]	.
8F 8G 8B	8f 8g	.
=70	=70	=70
*>C1	*>C1	*>C1
8CL	[2.e 2.cc	.
8E	.	.
8GJ	.	.
8AL	.	.
8G	.	.
8EJ	.	.
=71	=71	=71
4C	4e] 4cc	.
8r	8r	.
4.GG 4.G	4.g 4.b 4.gg	.
=72:|!	=72:|!	=72:|!
*>C2	*>C2	*>C2
8CL	[2.e [2.cc	.
8E	.	.
8GJ	.	.
8AL	.	.
8G	.	.
8EJ	.	.
=73	=73	=73
*>D	*>D	*>D
4C	4e] 4cc]	.
8r	8r	.
8CC 8C	8cc 8ee	.
8r	8r	.
8r	8r	.
=74	=74	=74
4.C 4.E 4.G 4.c	4e	.
.	8d#	.
4.C 4.E 4.G 4.A	(8eL	.
.	8g	.
.	8eJ)	.
=75	=75	=75
4.D 4.G 4.B	4d	.
.	8d	.
4.D 4.G 4.B	(8bL	.
.	8g	.
.	8eJ)	.
=76	=76	=76
4.D 4.F# 4.A 4.c	4d	.
.	8a	.
4.D 4.F# 4.A 4.c	(8dL	.
.	8e	.
.	8f#J)	.
=77	=77	=77
4GG	4g	.
8D 8G 8B	8r	.
4DD	8r	.
.	8r	.
8D 8G 8B	8d	.
=78!|:	=78!|:	=78!|:
*>E	*>E	*>E
*k[f#]	*k[f#]	*k[f#]
8AAL	8f#L	mf
8r	8e	.
8D 8F# 8cJ	8dJ	.
8DDL	8aL	.
8r	8b	.
8D 8F# 8cJ	8ccJ	.
=79	=79	=79
8GGL	8bL	.
8r	8r	.
8D 8G 8BJ	8g 8b 8eeJ	.
8DDL	4g 4b 4ee	.
8r	.	.
8D 8G 8BJ	8ee	.
=80	=80	=80
8FF#L	8ddL	.
8r	8ee	.
8D 8A 8cJ	8ccJ	.
8DDL	8bL	.
8r	8cc	.
8D 8F# 8cJ	8aJ	.
=81	=81	=81
8GGL	8gL	.
8r	8r	.
8D 8G 8BJ	8g 8b 8eeJ	.
4D 4G 4B	4g 4b 4ee	.
8D 8G 8B	8g	.
=82	=82	=82
8AAL	8f#L	.
8r	8e	.
8D 8F# 8cJ	8dJ	.
8DDL	8aL	.
8r	8b	.
8D 8F# 8cJ	8ccJ	.
=83	=83	=83
8GGL	8bL	.
8r	8r	.
8D 8G 8BJ	8g 8b 8eeJ	.
4D 4G 4B	4g 4b 4ee	.
8GG# 8G#	8b 8dd 8ee#	.
=84	=84	=84
*	*^	*
4AA 4A	(8ff#L	4.a 4.dd	.
.	8ee	.	.
8F# 8A 8d	8ddJ)	.	.
4AA	(8cc#L	4g	.
.	8dd	.	.
8A 8c#	8eeJ)	8g	.
*	*v	*v	*
=85	=85	=85
4D 4A 4d	[4.f# [4.dd	.
8AA 8A	.	.
8DD 8D	4f#] 4dd]	.
8r	.	.
8r	8d	.
=86	=86	=86
8AAL	8f#L	.
8r	8e	.
8D 8F# 8cJ	8dJ	.
8DDL	8aL	.
8r	8b	.
8D 8F# 8cJ	8ccJ	.
=87	=87	=87
8GGL	8bL	.
8r	8r	.
8D 8G 8BJ	8g 8b 8eeJ	.
8DDL	4g 4b 4ee	.
8r	.	.
8D 8G 8BJ	8ee	.
=88	=88	=88
8FF#L	8ddL	.
8r	8ee	.
8D 8A 8cJ	8ccJ	.
8DDL	8bL	.
8r	8cc	.
8D 8F# 8cJ	8aJ	.
=89	=89	=89
8GGL	8gL	.
8r	8r	.
8D 8G 8BJ	8g 8b 8eeJ	.
4D 4G 4B	4g 4b 4ee	.
8r	(16ff#LL	.
.	16ggJJ)	.
=90	=90	=90
4C	4.cc 4.ee 4.aa	.
8E 8A 8c	.	.
4E 4A 4c	8ggL	.
.	8ee	.
8E 8A 8c	8ccJ	.
=91	=91	=91
8DL	8bL	.
8r	8r	.
8G 8BJ	8eeJ	.
8BBL	8ddL	.
8r	8b	.
8D 8G 8BJ	8gJ	.
=92	=92	=92
8AAL	8f#L	.
8r	8dd	.
8D 8F# 8cJ	8aJ	.
8DDL	8ccL	.
8r	8b	.
8D 8F# 8cJ	8aJ	.
=93	=93	=93
*>E1	*>E1	*>E1
4G 4B	4g	.
8r	8d	.
4.r	8dL	.
.	8d	.
.	8dJ	.
=94:|!	=94:|!	=94:|!
*>E2	*>E2	*>E2
4G 4B	4g	.
8r	8r	.
8GG 8G	8g 8b 8gg	.
8r	8r	.
8r	8r	.
==	==	==
*-	*-	*-
!!!ENC: Craig Stuart Sapp
!!!END: 2005/03/29/
